src/icons/config.tool.svg

<svg width="16" height="16" viewBox="0 0 16 16" fill="none" xmlns="http://www.w3.org/2000/svg">
<path d="M6.5 6.48302V2.66888C6.5 2.33488 6.17778 2.09513 5.87235 2.23028C4.17491 2.98136 3 4.60327 3 6.48303C3 8.222 4.0055 9.74029 5.5 10.5526V13.0604C5.5 13.5793 5.94772 14 6.5 14H9.5C10.0523 14 10.5 13.5793 10.5 13.0604V10.5526C11.9945 9.74029 13 8.222 13 6.48303C13 4.60327 11.8251 2.98136 10.1277 2.23028C9.82222 2.09513 9.5 2.33488 9.5 2.66888V6.48302L8 7.89245L6.5 6.48302Z" fill="#6857C9"/>
</svg>

<svg xmlns="http://www.w3.org/2000/svg" fill="none" viewBox="0 0 16 16">
  <path fill="#6857C9" d="M6.5 6.483V2.669c0-.334-.3222-.5738-.6277-.4386C4.175 2.9813 3 4.6033 3 6.483c0 1.739 1.0055 3.2573 2.5 4.0696v2.5078c0 .5189.4477.9396 1 .9396h3c.5523 0 1-.4207 1-.9396v-2.5078C11.9945 9.7403 13 8.222 13 6.483c0-1.8797-1.1749-3.5016-2.8723-4.2527-.3055-.1352-.6277.1046-.6277.4386V6.483L8 7.8925 6.5 6.483Z"/>
</svg>
